X: 18758
T: Ievan Polkka
R: polka
M: 2/4
K: Bminor
|:B2 B>c|dB Bd|cA Ac|d/c/B/A/ BF|
B2 B>c|dB Bd|~e2 dc|1 BA B2:|2 Bc de||
|:fa d>f|ec cd|~e2 dc|Bc de|
fa d>f|ec cd|~e2 dc|1 Bc de:|2 BA B2||

